src/assets/tokens/FIS.svg

<?xml version="1.0" encoding="UTF-8"?>
<svg width="78px" height="78px" viewBox="0 0 78 78" version="1.1" xmlns="http://www.w3.org/2000/svg" xmlns:xlink="http://www.w3.org/1999/xlink">
    <title>Group 8</title>
    <defs>
        <linearGradient x1="10.4929716%" y1="0%" x2="92.2525491%" y2="100%" id="linearGradient-1">
            <stop stop-color="#0093ED" offset="0%"></stop>
            <stop stop-color="#00F3AB" offset="100%"></stop>
        </linearGradient>
        <linearGradient x1="65.9995755%" y1="92.5603766%" x2="10.8118122%" y2="0%" id="linearGradient-2">
            <stop stop-color="#000A17" offset="0%"></stop>
            <stop stop-color="#00554F" offset="100%"></stop>
        </linearGradient>
    </defs>
    <g id="staker---staking-flow" stroke="none" stroke-width="1" fill="none" fill-rule="evenodd">
        <g id="最终-copy" transform="translate(-298.000000, -47.000000)">
            <g id="cosmos-logo-horizontal-dark-copy-4" transform="translate(299.000000, 48.000000)">
                <path d="M37.9999365,0 C58.9867462,0 76,17.0131586 76,37.9999365 C76,58.9867462 58.9867462,76 37.9999365,76 C17.0131586,76 0,58.9867462 0,37.9999365 C0,17.0131586 17.0131586,0 37.9999365,0 Z" id="Path" stroke-opacity="0.2" stroke="#00F3AB" fill="url(#linearGradient-1)"></path>
                <path d="M40.4036802,48.7813491 C42.1304912,48.8795712 43.7838749,49.0856864 45.3638314,49.3996949 L46.659242,53.4244385 L46.734,49.703 L47.3333333,49.8571429 C48.8984015,50.4320658 50.4634696,50.7900743 52.0285377,50.9311682 L50.3535572,59 L43.6339761,59 Z M34.939538,48.8241704 L31.8819814,59 L25.395113,59 L23.7951959,50.9894609 C25.5763633,50.9233214 27.2001869,50.545882 28.6666667,49.8571429 C28.9007788,49.7945971 29.1366381,49.7346186 29.3742445,49.6772074 L29.5839428,53.4244385 L30.6979319,49.3874821 C32.0575563,49.1200055 33.471425,48.9322349 34.939538,48.8241704 Z M22.9574468,17 L29.0333348,45.0771841 C28.9099809,45.1450321 28.7877582,45.2145421 28.6666667,45.2857143 C26.918562,46.047619 25.1037472,46.4285714 23.2222222,46.4285714 C23.109344,46.4285714 22.9957727,46.4272003 22.8815084,46.4244581 L17,17 L22.9574468,17 Z M52.1489362,17 L59,17.328125 L52.9667915,46.4156041 C51.2959408,46.3430913 49.4181214,45.9664614 47.3333333,45.2857143 C47.2904205,45.2604921 47.2473657,45.2354786 47.2041688,45.2106739 L52.1489362,17 Z M39.5905918,31.2503662 L43.5469673,43.6992994 C42.0329685,43.281738 40.3917066,43.0511754 38.6231817,43.0076116 L37.6125332,39.3253174 L36.6277662,43.0376694 C35.0913252,43.1236294 33.6550062,43.3567073 32.3188091,43.7369031 L36.012633,31.2503662 L39.5905918,31.2503662 Z" id="Combined-Shape-Copy" fill="url(#linearGradient-2)"></path>
            </g>
        </g>
    </g>
</svg>

<svg width="78" height="78" xmlns="http://www.w3.org/2000/svg"><defs><linearGradient x1="10.493%" y1="0%" x2="92.253%" y2="100%" id="a"><stop stop-color="#0093ED" offset="0%"/><stop stop-color="#00F3AB" offset="100%"/></linearGradient><linearGradient x1="66%" y1="92.56%" x2="10.812%" y2="0%" id="b"><stop stop-color="#000A17" offset="0%"/><stop stop-color="#00554F" offset="100%"/></linearGradient></defs><g transform="translate(1 1)" fill="none" fill-rule="evenodd"><path d="M38 0c20.987 0 38 17.013 38 38S58.987 76 38 76 0 58.987 0 38 17.013 0 38 0z" stroke-opacity=".2" stroke="#00F3AB" fill="url(#a)"/><path d="M40.404 48.781c1.726.099 3.38.305 4.96.619l1.295 4.024.075-3.721.6.154a18.36 18.36 0 0 0 4.695 1.074L50.354 59h-6.72zm-5.464.043L31.882 59h-6.487l-1.6-8.01c1.781-.067 3.405-.444 4.872-1.133.234-.062.47-.122.707-.18l.21 3.747 1.114-4.037a35.443 35.443 0 0 1 4.242-.563zM22.957 17l6.076 28.077c-.123.068-.245.138-.366.209a13.49 13.49 0 0 1-5.785 1.138L17 17h5.957zm29.192 0l6.851.328-6.033 29.088c-1.671-.073-3.549-.45-5.634-1.13l-.129-.075L52.15 17zM39.59 31.25l3.956 12.45c-1.514-.418-3.155-.649-4.924-.692l-1.01-3.683-.985 3.713a19.743 19.743 0 0 0-4.31.699l3.695-12.487h3.578z" fill="url(#b)"/></g></svg>
